src/status/24/microphone-sensitivity-muted-60-symbolic.svg

<?xml version="1.0" encoding="UTF-8" standalone="no"?>
<svg
   xmlns:dc="http://purl.org/dc/elements/1.1/"
   xmlns:cc="http://creativecommons.org/ns#"
   xmlns:rdf="http://www.w3.org/1999/02/22-rdf-syntax-ns#"
   xmlns:svg="http://www.w3.org/2000/svg"
   xmlns="http://www.w3.org/2000/svg"
   id="svg6"
   version="1.1"
   width="24"
   height="24">
  <metadata
     id="metadata12">
    <rdf:RDF>
      <cc:Work
         rdf:about="">
        <dc:format>image/svg+xml</dc:format>
        <dc:type
           rdf:resource="http://purl.org/dc/dcmitype/StillImage" />
        <dc:title></dc:title>
      </cc:Work>
    </rdf:RDF>
  </metadata>
  <defs
     id="defs10" />
  <path
     id="path2"
     d="M 6.3535156 4.7363281 L 5.4121094 5.6777344 L 13.896484 14.162109 L 14.837891 13.220703 L 14 12.382812 L 14 7 C 14 5.892 13.108 5 12 5 C 10.892 5 10 5.892 10 7 L 10 8.3828125 L 6.3535156 4.7363281 z M 7 10 L 7 11 L 8 11 L 8 13 A 3.981 3.981 0 0 0 11 16.861328 L 11 19 L 10 19 L 10 20 L 14 20 L 14 19 L 13 19 L 13 16.861328 A 3.981 3.981 0 0 0 16 13 L 16 11 L 17 11 L 17 10 L 15 10 L 15 13 C 15 14.662 13.662 16 12 16 C 10.338 16 9 14.662 9 13 L 9 10.603516 L 8.3964844 10 L 7 10 z M 10 11.603516 L 10 13 C 10 14.108 10.892 15 12 15 C 12.398899 15 12.766762 14.881325 13.078125 14.681641 L 10 11.603516 z "
     style="color:#bebebe;overflow:visible;isolation:auto;mix-blend-mode:normal;fill:#ffffff;marker:none" />
</svg>

<?xml version="1.0" encoding="UTF-8"?>
<svg id="svg6" width="24" height="24" version="1.1" xmlns="http://www.w3.org/2000/svg" xmlns:cc="http://creativecommons.org/ns#" xmlns:dc="http://purl.org/dc/elements/1.1/" xmlns:rdf="http://www.w3.org/1999/02/22-rdf-syntax-ns#">
 <metadata id="metadata12">
  <rdf:RDF>
   <cc:Work rdf:about="">
    <dc:format>image/svg+xml</dc:format>
    <dc:type rdf:resource="http://purl.org/dc/dcmitype/StillImage"/>
    <dc:title/>
   </cc:Work>
  </rdf:RDF>
 </metadata>
 <path id="path2" d="m6.3535 4.7363-0.94141 0.94141 8.4844 8.4844 0.94141-0.94141-0.83789-0.83789v-5.3828c0-1.108-0.892-2-2-2s-2 0.892-2 2v1.3828l-3.6465-3.6465zm0.64648 5.2637v1h1v2a3.981 3.981 0 0 0 3 3.8613v2.1387h-1v1h4v-1h-1v-2.1387a3.981 3.981 0 0 0 3-3.8613v-2h1v-1h-2v3c0 1.662-1.338 3-3 3s-3-1.338-3-3v-2.3965l-0.60352-0.60352h-1.3965zm3 1.6035v1.3965c0 1.108 0.892 2 2 2 0.3989 0 0.76676-0.11868 1.0781-0.31836l-3.0781-3.0781z" color="#bebebe" fill="#fff" style="isolation:auto;mix-blend-mode:normal"/>
</svg>
